X:75
T: Ach Schatz, wo fehlt es dir (Band 1), S. 215
N: P0850
O: Lothringen
S: PINCK, Louis: Verklingende Weisen, Bd 1, Metz 1928]
R: ???, Liebe, Abschied?]
M: 2/4
L: 1/16
K: G
 | G4F2G2 | A2F2D4 |
B4A2B2 | c2B2A2
G2 | A2A2A2DD | G2B2B2G2 |
A2A2A2FD | G2BBB2G2 |
c3e2d2G | B2A2G4

